Sources/FrostedUI/Resources/Icons.xcassets/receptionBellFilled12.imageset/reception-bell-filled-12.svg

<svg width="12" height="12" viewBox="0 0 12 12" fill="none" xmlns="http://www.w3.org/2000/svg" data-fui-icon="true">
  <path
    d="M7.25 0.5C7.66421 0.5 8 0.835786 8 1.25C8 1.66421 7.66421 2 7.25 2H6.75V3.03516C8.31475 3.1862 9.3706 3.81703 10.0381 4.70898C10.7735 5.69194 10.9458 6.8749 10.9873 7.71387C11.0234 8.4453 10.4269 9 9.75 9H6.75V10.5H10.25C10.6642 10.5 11 10.8358 11 11.25C11 11.6642 10.6642 12 10.25 12H1.75C1.3358 12 1 11.6642 1 11.25C1 10.8358 1.3358 10.5 1.75 10.5H5.25V9H2.25C1.57315 8.99998 0.976595 8.44529 1.0127 7.71387L1.03516 7.38379C1.10606 6.58195 1.31849 5.56897 1.96191 4.70898C2.62939 3.81703 3.68526 3.1862 5.25 3.03516V2H4.75C4.3358 1.99998 4 1.6642 4 1.25C4 0.835798 4.3358 0.500018 4.75 0.5H7.25Z"
    fill="currentColor"
  />
</svg>

<svg xmlns="http://www.w3.org/2000/svg" width="12" height="12" fill="none" data-fui-icon="true" viewBox="0 0 12 12"><path fill="currentColor" d="M7.25.5a.75.75 0 0 1 0 1.5h-.5v1.035c1.565.151 2.62.782 3.288 1.674.736.983.908 2.166.95 3.005C11.022 8.445 10.426 9 9.75 9h-3v1.5h3.5a.75.75 0 0 1 0 1.5h-8.5a.75.75 0 0 1 0-1.5h3.5V9h-3c-.677 0-1.273-.555-1.237-1.286l.022-.33c.071-.802.283-1.815.927-2.675.667-.892 1.723-1.523 3.288-1.674V2h-.5a.75.75 0 0 1 0-1.5z"/></svg>
